X:51
T:The Brosna Polkas No. 2
T:Ned Connor's Set No. 2
Z:Ed Barrett
R:polka
M:2/4
L:1/8
K:D
dc/2d/2 ed|cA AF|GE AG|FD DE/2F/2|
GE AG|FA de/2f/2|ge ce|d2 dA:|]
dc/2d/2 fa|ge ed|c/2B/2A eA|fA eA|
dc/2d/2 fa|ge ed|c/2B/2A Bc|d2 dA:|]
